X: 4352
T: OUR DREAD MONARCH. (Lucrezia Borgia.)
%R: air, waltz, jig
B: James Kerr "Merry Melodies" v.4 p.37 #352
Z: 2016 John Chambers <jc:trillian.mit.edu>
M: 6/8
L: 1/8
K: D
|:\
A3 d3 | dcB A2B |\
E2F G2A |[1 GFE D2F :|\
[2 DFA d2 |] d |\
F2F ^G2G | A^GB A2=c |\
E2E F2F | GFA G2^A |\
B2c d2e | f^eg f2d |\
e^df e2A | d2z z2z |]

%%sep 1 1 500
%%sep 1 1 500

